CKC/img/icons/phone.svg

<svg width="19" height="18" viewBox="0 0 19 18" fill="none" xmlns="http://www.w3.org/2000/svg">
<path d="M7.42941 16.3734C6.67305 16.8621 5.77175 17.075 4.87704 16.9765C3.98234 16.8779 3.14881 16.4738 2.5166 15.8321L1.96391 15.2909C1.72161 15.0427 1.58594 14.7093 1.58594 14.3622C1.58594 14.015 1.72161 13.6817 1.96391 13.4334L4.30978 11.1086C4.55554 10.8667 4.88634 10.7311 5.23093 10.7311C5.57551 10.7311 5.90631 10.8667 6.15208 11.1086V11.1086C6.39992 11.3512 6.73276 11.4871 7.07937 11.4871C7.42598 11.4871 7.75882 11.3512 8.00667 11.1086L11.6913 7.4183C11.8142 7.29698 11.9118 7.1524 11.9784 6.99297C12.045 6.83353 12.0794 6.66242 12.0794 6.48958C12.0794 6.31675 12.045 6.14563 11.9784 5.9862C11.9118 5.82676 11.8142 5.68218 11.6913 5.56086V5.56086C11.4497 5.31472 11.3144 4.98341 11.3144 4.6383C11.3144 4.29318 11.4497 3.96187 11.6913 3.71573L14.0249 1.37856C14.2727 1.13588 14.6055 1 14.9521 1C15.2988 1 15.6316 1.13588 15.8794 1.37856L16.4198 1.9321C17.0605 2.56528 17.464 3.40009 17.5624 4.29617C17.6609 5.19225 17.4482 6.09494 16.9603 6.85246C14.4178 10.6051 11.1829 13.8367 7.42941 16.3734V16.3734Z" stroke="#CDCDCD" stroke-width="1.5" stroke-linecap="round" stroke-linejoin="round"/>
</svg>

<svg width="19" height="18" fill="none" xmlns="http://www.w3.org/2000/svg"><path d="M7.43 16.373a3.914 3.914 0 01-4.913-.54l-.553-.542a1.33 1.33 0 010-1.858L4.31 11.11a1.313 1.313 0 011.842 0v0a1.326 1.326 0 001.855 0l3.684-3.69a1.304 1.304 0 000-1.858v0a1.317 1.317 0 010-1.845l2.334-2.337a1.325 1.325 0 011.854 0l.54.553a3.926 3.926 0 01.541 4.92 35.573 35.573 0 01-9.53 9.521v0z" stroke="#CDCDCD" stroke-width="1.5" stroke-linecap="round" stroke-linejoin="round"/></svg>
